!!!COM: Bach, Johann Sebastian
!!!CDT: 1685/3//-1750/7/28/
!!!OTL@@DE: Erstanden ist der heil'ge Christ
!!!AGN: 4-Part Chorale
!!!SCT: BH 176
!!!SCT: BWV 306
**harm	**root	**kern	**kern	**kern	**kern
!	!	!bass	!tenor	!alto	!soprno
*	*Iorgan	*Iorgan	*Iorgan	*Iorgan	*Iorgan
*M3/4	*M3/4	*M3/4	*M3/4	*M3/4	*M3/4
*MM60	*MM60	*MM60	*MM60	*MM60	*MM60
*k[f#c#]	*k[f#c#]	*k[f#c#]	*k[f#c#]	*k[f#c#]	*k[f#c#]
*D:	*D:	*D:	*D:	*D:	*D:
I	4FF	4DD	4F#	4A	4d
=1	=1	=1	=1	=1	=1
I	4.FF	4.D	8F#	4A	4.d
.	.	.	8G	.	.
.	.	.	8F#	8B	.
vii	8EE	8C#	8E	8c#	8e
vi	4DD	4BB	4D	[4d	8f#
.	.	.	.	.	8g
=2	=2	=2	=2	=2	=2
V	2CC	4.AA	2E	4d]	2a
.	.	.	.	8c#	.
.	.	8BB	.	8d	.
Vb	4CC	8C#	4A	[4e	4e
.	.	8AA	.	.	.
=3	=3	=3	=3	=3	=3
I	2FF	4.D	2A	8e]	2f#
.	.	.	.	8c#	.
.	.	.	.	[2d	.
.	.	8C#	.	.	.
viib/V	4BB	4BB	4B	.	4g#
=4	=4	=4	=4	=4	=4
V;	2CC;	2AA;	2E;	4d]	2a;
.	.	.	.	4c#;	.
V7b	4CC	4C#	4A	[4e	4gy
=5	=5	=5	=5	=5	=5
I	4FF	4.D	8A	4e]	4.f#
.	.	.	8F#	.	.
vib	4DD	.	2B	2d	.
.	.	8C#	.	.	8e
vi	4DD	4BB	.	.	8f#
.	.	.	.	.	8g
=6	=6	=6	=6	=6	=6
Vb	4CC	4.C#	8A	8e	2a
.	.	.	8B	8d	.
Vb	8CC	.	4c#	8e	.
vii7/ii	8FF#	8D#	.	[8f#	.
ii	4GG	4E	4B	8f#]	4g
.	.	.	.	[8e	.
=7	=7	=7	=7	=7	=7
vi	4DD	4.BB	4B	8e]	2f#
.	.	.	.	16d	.
.	.	.	.	16c#	.
vi	4DD	.	4F#	[4d	.
.	.	8AA	.	.	.
v7c/III	4EE	4GG	4BB	8d]	4e
.	.	.	.	16c#	.
.	.	.	.	16B	.
!!linebreak: 2
=8	=8	=8	=8	=8	=8
III;	2AA;	2FF#;	2C#;	2A#;	2f#;
vi	4DD	4BB	4D	4B	4f#
=9	=9	=9	=9	=9	=9
iii	4AA	8F#	4F#	4.c#	2a
.	.	8FF#	.	.	.
iii	4AA	8F#	[2A	.	.
.	.	8E	.	8d	.
V7b	4CC	8D	.	[4e	4g
.	.	8C#	.	.	.
=10	=10	=10	=10	=10	=10
I	4FF	8D	8A]	4e]	2f#
.	.	8DD	8F#	.	.
vib	4DD	8D	8B	4d	.
.	.	8C#	8A	.	.
viioD7/vi	4CC#	8BB	4G	[4c#	4e
.	.	8AA#	.	.	.
=11	=11	=11	=11	=11	=11
vi	4DD	4BB	8F#	4c#]	2d
.	.	.	8D	.	.
IV	4BB-	4GG	8G	4B	.
.	.	.	8F#	.	.
V	4CC	4AA	4E	8A	4c#
.	.	.	.	8G	.
=12	=12	=12	=12	=12	=12
vi;	2DD;	2BB;	2D;	2F#;	2d;
vi	4DD	8BB	4F#	4B	4d
.	.	8AA	.	.	.
=13	=13	=13	=13	=13	=13
iib	4GG	4.GG	4E	4B	8e
.	.	.	.	.	8d
V7d	8CC	.	4A	8c#	8e
Ib	8FF	8FF#	.	8d	8f#
!!!ONB1: in beat 3 of measure 13, the tenor pitch is 'd' in
!!!ONB2: Breitkof & Haertel editions, but is 'B-' in the
!!!ONB3: Bach Compendium index incipit.
ii	4GG	4EE	8G	8B	4g
.	.	.	8E	8c#	.
=14	=14	=14	=14	=14	=14
I	4FF	8DD	8F#	2d	2f#
.	.	8EE	8G	.	.
Ib	4FF	8FF#	[4A	.	.
.	.	8GG	.	.	.
V	4CC	4AA	8A]	[4c#	4e
.	.	.	8G	.	.
=15	=15	=15	=15	=15	=15
vi	4DD	8BB	4F#	4c#]	2d
.	.	8AA	.	.	.
IV	4BB-	4GG	8G	4B	.
.	.	.	8F#	.	.
V7	4CC	4AA	8E	4A	4c#
.	.	.	8G	.	.
=16	=16	=16	=16	=16	=16
I;	2FF;	2DD;	2F#;	2A;	2d;
==	==	==	==	==	==
*-	*-	*-	*-	*-	*-
!!chor2scor: -l 2 -s 0.6 -o %b.pmx
!!!YEC: Copyright 1994, David Huron
!!!YEC: Changes/Additions 2001 by Craig Stuart Sapp
!!!YEN: United States of America
!!!SMA: 371 Bach Chorales, edited by Ludwig Erk, C.F. Peters
!!!PDT: 1850, 1865
!!!ONB: Harmony and Root analysis done manually
